assets/icon-background.svg

<svg fill="none" height="40" viewBox="0 0 80 40" width="80" xmlns="http://www.w3.org/2000/svg"><g fill="#1b1d44"><path d="m18.1271 12.0602c-.3439 1.4679-.3906 2.9898-.1376 4.476.253 1.4863.8007 2.907 1.6109 4.1784.8101 1.2715 1.8664 2.3681 3.1067 3.2253 1.2402.8572 2.6393 1.4578 4.1151 1.7662-.7759.8027-1.7052 1.4413-2.7326 1.878-1.0275.4367-2.1322.6625-3.2486.664-.1039 0-.2086.0038-.3133 0-1.9435-.0687-3.8016-.8161-5.2514-2.1122s-2.3999-3.0591-2.6852-4.9828.1123-3.8865 1.1236-5.5476 2.5725-2.9155 4.4124-3.5453zm1.1081-1.8102c-.0439.0001-.0877.004-.131.0117-2.3881.4242-4.5349 1.7171-6.0267 3.6296-1.4919 1.9125-2.2233 4.3094-2.0534 6.729.17 2.4196 1.2292 4.6908 2.9737 6.376 1.7445 1.6853 4.0509 2.6654 6.4749 2.7517.1231.0045.2461 0 .3682 0 1.5741.0008 3.1253-.3774 4.5223-1.1026 1.3971-.7253 2.599-1.7763 3.5042-3.0641.0734-.111.1162-.2394.1242-.3722.0079-.1328-.0192-.2653-.0788-.3843s-.1494-.2201-.2605-.2933-.2396-.1158-.3724-.1235c-1.4984-.1315-2.9464-.6057-4.2323-1.3861-1.2858-.7803-2.375-1.8459-3.1833-3.1143-.8084-1.2685-1.3142-2.7058-1.4784-4.2009-.1643-1.4952.0175-3.008.5312-4.4217.0437-.1131.0598-.235.0468-.3556-.0129-.1205-.0545-.2363-.1212-.3375-.0667-.1013-.1566-.1851-.2623-.2446s-.224-.0928-.3452-.0973z"/><path clip-rule="evenodd" d="m59.25 9.50366h1.5v3.75004h-1.5zm-6.1443 2.54514-1.0605 1.0606 2.6294 2.6294 1.0605-1.0606zm6.8943 4.9549c.5933 0 1.1734.1759 1.6667.5056.4934.3296.8779.7981 1.1049 1.3463.2271.5482.2865 1.1514.1708 1.7333-.1158.582-.4015 1.1165-.8211 1.5361-.4195.4195-.9541.7053-1.536.821-.582.1158-1.1852.0564-1.7333-.1707-.5482-.2271-1.0168-.6116-1.3464-1.1049-.3297-.4934-.5056-1.0734-.5056-1.6667.0009-.7954.3173-1.558.8797-2.1204s1.3249-.8787 2.1203-.8796zm0-1.5c-.89 0-1.76.2639-2.5001.7583-.74.4945-1.3168 1.1973-1.6574 2.0196s-.4297 1.7271-.256 2.6c.1736.8729.6022 1.6747 1.2315 2.304.6294.6294 1.4312 1.058 2.3041 1.2316s1.7777.0845 2.6-.2561c.8222-.3406 1.525-.9174 2.0195-1.6574s.7584-1.61.7584-2.5c0-1.1935-.4741-2.3381-1.318-3.182s-1.9885-1.318-3.182-1.318zm-10.5 3.75h3.75v1.5h-3.75zm5.1745 5.0149-2.6293 2.6293 1.0605 1.0606 2.6294-2.6294zm4.5755 2.4851h1.5v3.75h-1.5zm6.0755-2.4852-1.0606 1.0606 2.6294 2.6294 1.0605-1.0606zm1.4245-5.0148h3.75v1.5h-3.75zm.1443-7.2049-2.6294 2.6294 1.0606 1.0606 2.6293-2.6294z" fill-rule="evenodd"/></g></svg>

<svg width="80" height="40" viewBox="0 0 80 40" fill="none" xmlns="http://www.w3.org/2000/svg">
<path d="M18.1271 12.0602C17.7832 13.5281 17.7365 15.05 17.9895 16.5362C18.2425 18.0225 18.7902 19.4432 19.6004 20.7146C20.4105 21.9861 21.4668 23.0827 22.7071 23.9399C23.9473 24.7971 25.3464 25.3977 26.8222 25.7061C26.0463 26.5088 25.117 27.1474 24.0896 27.5841C23.0621 28.0208 21.9574 28.2466 20.841 28.2481C20.7371 28.2481 20.6324 28.2519 20.5277 28.2481C18.5842 28.1794 16.7261 27.432 15.2763 26.1359C13.8265 24.8398 12.8764 23.0768 12.5911 21.1531C12.3058 19.2294 12.7034 17.2666 13.7147 15.6055C14.726 13.9444 16.2872 12.69 18.1271 12.0602V12.0602ZM19.2352 10.25C19.1913 10.2501 19.1475 10.254 19.1042 10.2617C16.7161 10.6859 14.5693 11.9788 13.0775 13.8913C11.5856 15.8038 10.8542 18.2007 11.0241 20.6203C11.1941 23.0399 12.2533 25.3111 13.9978 26.9963C15.7423 28.6816 18.0487 29.6617 20.4727 29.748C20.5958 29.7525 20.7188 29.748 20.8409 29.748C22.415 29.7488 23.9662 29.3706 25.3632 28.6454C26.7603 27.9201 27.9622 26.8691 28.8674 25.5813C28.9408 25.4703 28.9836 25.3419 28.9916 25.2091C28.9995 25.0763 28.9724 24.9438 28.9128 24.8248C28.8532 24.7058 28.7634 24.6047 28.6523 24.5315C28.5412 24.4583 28.4127 24.4157 28.2799 24.408C26.7815 24.2765 25.3335 23.8023 24.0476 23.0219C22.7618 22.2416 21.6726 21.176 20.8643 19.9076C20.0559 18.6391 19.5501 17.2018 19.3859 15.7067C19.2216 14.2115 19.4034 12.6987 19.9171 11.285C19.9608 11.1719 19.9769 11.05 19.9639 10.9294C19.951 10.8089 19.9094 10.6931 19.8427 10.5919C19.776 10.4906 19.6861 10.4068 19.5804 10.3473C19.4747 10.2878 19.3564 10.2545 19.2352 10.25V10.25Z" fill="#1B1D44"/>
<path fill-rule="evenodd" clip-rule="evenodd" d="M59.25 9.50366H60.75V13.2537H59.25V9.50366ZM53.1057 12.0488L52.0452 13.1094L54.6746 15.7388L55.7351 14.6782L53.1057 12.0488ZM60 17.0037C60.5933 17.0037 61.1734 17.1796 61.6667 17.5093C62.1601 17.8389 62.5446 18.3074 62.7716 18.8556C62.9987 19.4038 63.0581 20.007 62.9424 20.5889C62.8266 21.1709 62.5409 21.7054 62.1213 22.125C61.7018 22.5445 61.1672 22.8303 60.5853 22.946C60.0033 23.0618 59.4001 23.0024 58.852 22.7753C58.3038 22.5482 57.8352 22.1637 57.5056 21.6704C57.1759 21.177 57 20.597 57 20.0037C57.0009 19.2083 57.3173 18.4457 57.8797 17.8833C58.4421 17.3209 59.2046 17.0046 60 17.0037ZM60 15.5037C59.11 15.5037 58.24 15.7676 57.4999 16.262C56.7599 16.7565 56.1831 17.4593 55.8425 18.2816C55.5019 19.1039 55.4128 20.0087 55.5865 20.8816C55.7601 21.7545 56.1887 22.5563 56.818 23.1856C57.4474 23.815 58.2492 24.2436 59.1221 24.4172C59.995 24.5908 60.8998 24.5017 61.7221 24.1611C62.5443 23.8205 63.2471 23.2437 63.7416 22.5037C64.2361 21.7637 64.5 20.8937 64.5 20.0037C64.5 18.8102 64.0259 17.6656 63.182 16.8217C62.3381 15.9778 61.1935 15.5037 60 15.5037ZM49.5 19.2537H53.25V20.7537H49.5V19.2537ZM54.6745 24.2686L52.0452 26.8979L53.1057 27.9585L55.7351 25.3291L54.6745 24.2686ZM59.25 26.7537H60.75V30.5037H59.25V26.7537ZM65.3255 24.2685L64.2649 25.3291L66.8943 27.9585L67.9548 26.8979L65.3255 24.2685ZM66.75 19.2537H70.5V20.7537H66.75V19.2537ZM66.8943 12.0488L64.2649 14.6782L65.3255 15.7388L67.9548 13.1094L66.8943 12.0488Z" fill="#1B1D44"/>
</svg>
